openframe-frontend-core/src/components/icons-v2/brand-logos/apple-logo.svg

<svg width="24" height="24" viewBox="0 0 24 24" fill="none" xmlns="http://www.w3.org/2000/svg">
<path d="M17.5696 12.6278C17.5455 10.0969 19.6324 8.88093 19.7263 8.82302C18.5517 7.10279 16.7271 6.86635 16.0771 6.83981C14.5246 6.68057 13.0466 7.75662 12.257 7.75662C11.4675 7.75662 10.2519 6.86152 8.96412 6.88806C7.26951 6.91219 5.70729 7.87484 4.83351 9.39483C3.07632 12.4493 4.38579 16.9851 6.10206 19.4677C6.94214 20.6813 7.93869 22.0493 9.25297 21.9986C10.5191 21.948 10.9957 21.1783 12.5218 21.1783C14.0479 21.1783 14.4788 21.9986 15.8148 21.9745C17.1748 21.948 18.0365 20.7344 18.8694 19.516C19.8274 18.1046 20.2246 16.7414 20.2487 16.669C20.2174 16.657 17.5984 15.6509 17.5696 12.6278Z" fill="#888888"/>
<path d="M15.0592 5.19438C15.7572 4.34753 16.2266 3.17256 16.099 2C15.0953 2.04102 13.8797 2.67072 13.1599 3.51757C12.5148 4.2655 11.9492 5.46219 12.1032 6.61062C13.2177 6.69747 14.3635 6.03881 15.0592 5.19438Z" fill="#888888"/>
</svg>

<svg xmlns="http://www.w3.org/2000/svg" width="24" height="24" fill="none" viewBox="0 0 24 24">
  <path fill="#888" d="M17.57 12.628c-.024-2.531 2.062-3.747 2.156-3.805-1.174-1.72-2.999-1.957-3.649-1.983-1.552-.16-3.03.917-3.82.917s-2.005-.895-3.293-.869c-1.694.024-3.257.987-4.13 2.507-1.758 3.054-.448 7.59 1.268 10.073.84 1.213 1.837 2.581 3.151 2.53 1.266-.05 1.743-.82 3.269-.82s1.957.82 3.293.796c1.36-.026 2.222-1.24 3.054-2.458.958-1.411 1.356-2.775 1.38-2.847-.032-.012-2.65-1.018-2.68-4.041Zm-2.51-7.434c.697-.846 1.167-2.021 1.039-3.194-1.004.041-2.22.67-2.94 1.518-.644.748-1.21 1.944-1.056 3.093 1.115.086 2.26-.572 2.956-1.417Z"/>
</svg>
